packages/core/src/svgs/tokens/branded/REALM.svg

<svg width="24" height="24" viewBox="0 0 24 24" fill="none" xmlns="http://www.w3.org/2000/svg">
<path d="M10.125 14.4959L10.4083 13.925L12.625 9.5L13.4583 11.1583L14.2916 12.8334H13.3958C13.3583 12.8334 13.3459 12.825 13.3333 12.8L12.7833 11.6959L12.6459 11.425C12.6404 11.4138 12.6349 11.4027 12.6291 11.3916L12.6209 11.3792L12.6125 11.3916C12.6066 11.4012 12.601 11.4109 12.5958 11.4208L12.25 12.1125L11.4875 13.6333L11.0625 14.4667C11.0541 14.4833 11.0375 14.4959 11.0208 14.4959H10.125ZM15.125 14.4959H14.2291C14.2125 14.4959 14.1875 14.4875 14.1833 14.475L13.7916 13.6916L13.7875 13.6792L13.7834 13.6708H14.6708C14.6917 13.6708 14.7125 13.6708 14.725 13.6916L15.1167 14.475L15.125 14.5V14.4959ZM22 14.5H21.1667V11.5167L20.325 12.3583C20.0542 12.6375 19.7833 12.9083 19.5042 13.1834L19.3834 13.0667L19.0166 12.6959C18.3521 12.0271 17.6882 11.3576 17.025 10.6875C17.0111 10.6742 17.0023 10.6565 17 10.6375V9.5L17.6166 10.1167L19.5083 12L19.5167 11.9875C20.3401 11.1623 21.1637 10.3374 21.9875 9.5125L22 9.5V14.5ZM2 9.50417H2.05833C2.78611 9.50377 3.51389 9.50377 4.24166 9.50417C4.74583 9.50417 5.15833 9.69166 5.5 10.0542C5.72415 10.2945 5.87036 10.597 5.91944 10.922C5.96851 11.247 5.91816 11.5792 5.77499 11.875C5.6004 12.244 5.29647 12.536 4.92083 12.6959C4.91667 12.6959 4.90833 12.6959 4.90416 12.7041L4.89166 12.7083L5.93333 14.5H5C4.97083 14.5 4.95833 14.4917 4.94166 14.4667C4.77499 14.1792 4.59999 13.8958 4.42917 13.6083C4.10416 13.075 3.78333 12.5459 3.48333 12H4.24999C4.66666 12 5.02916 11.6709 5.08333 11.2625C5.14167 10.7709 4.74167 10.4125 4.40833 10.3584L4.38333 10.3542C4.32846 10.3425 4.27271 10.3356 4.21667 10.3334H2.63333C2.52916 10.3334 2.47083 10.2959 2.425 10.2208L2.15417 9.7625L2.02917 9.55C2.02277 9.54122 2.01581 9.53287 2.00833 9.525L2 9.5125V9.50417ZM15.3334 9.50417V14.5H18.6666V13.6666H16.1667V9.50417H15.3334ZM6.58333 12.4167V11.5834H9.91666V12.4167H6.58333ZM6.625 14.3958C6.5875 14.425 6.575 14.4541 6.5875 14.5H9.91666V13.6666H7.45C7.42916 13.6666 7.40416 13.6792 7.3875 13.6916L7.04999 14.0042L6.62083 14.3958H6.625ZM9.91666 9.5V10.3334H7.45C7.42741 10.3337 7.40538 10.3263 7.3875 10.3125L6.72916 9.65L6.59166 9.5125L6.58333 9.5H9.91666Z" fill="url(#paint0_linear_364_12501)"/>
<defs>
<linearGradient id="paint0_linear_364_12501" x1="12" y1="9.5" x2="12" y2="14.5" gradientUnits="userSpaceOnUse">
<stop stop-color="#B29AFA"/>
<stop offset="1" stop-color="#F8B4C1"/>
</linearGradient>
</defs>
</svg>

<svg xmlns="http://www.w3.org/2000/svg" width="24" height="24" fill="none" viewBox="0 0 24 24">
    <path fill="url(#REALM__a)" d="m10.125 14.496.283-.571L12.625 9.5l.833 1.658.834 1.675h-.896c-.038 0-.05-.008-.063-.033l-.55-1.104-.137-.271-.017-.033-.008-.013-.008.013-.017.029-.346.692-.762 1.52-.425.834c-.009.016-.026.029-.042.029zm5 0h-.896c-.016 0-.041-.008-.046-.021l-.391-.783-.005-.013-.004-.008h.888c.02 0 .042 0 .054.02l.392.784.008.025zM22 14.5h-.833v-2.983l-.842.841c-.27.28-.542.55-.82.825l-.122-.116-.366-.371q-.997-1.003-1.992-2.008a.1.1 0 0 1-.025-.05V9.5l.617.617L19.508 12l.009-.012 2.47-2.476L22 9.5zM2 9.504h2.242c.504 0 .916.188 1.258.55a1.63 1.63 0 0 1 .275 1.821 1.67 1.67 0 0 1-.854.82c-.004 0-.013 0-.017.01l-.012.003L5.933 14.5H5c-.03 0-.042-.008-.058-.033-.167-.288-.342-.571-.513-.859A42 42 0 0 1 3.483 12h.767c.417 0 .78-.33.833-.738.059-.491-.341-.85-.675-.904l-.025-.004a1 1 0 0 0-.166-.02H2.633c-.104 0-.162-.038-.208-.113l-.27-.459-.126-.212-.02-.025L2 9.512zm13.333 0V14.5h3.334v-.833h-2.5V9.504zm-8.75 2.913v-.834h3.334v.834zm.042 1.979c-.037.029-.05.058-.037.104h3.329v-.833H7.45a.1.1 0 0 0-.062.025l-.338.312-.43.392zM9.917 9.5v.833H7.45a.1.1 0 0 1-.062-.02l-.659-.663-.137-.138-.009-.012z"/>
    <defs>
        <linearGradient id="REALM__a" x1="12" x2="12" y1="9.5" y2="14.5" gradientUnits="userSpaceOnUse">
            <stop stop-color="#B29AFA"/>
            <stop offset="1" stop-color="#F8B4C1"/>
        </linearGradient>
    </defs>
</svg>
